src/img/icons/X.svg

<svg width="32" height="32" viewBox="0 0 32 32" fill="none" xmlns="http://www.w3.org/2000/svg">
<path d="M22.2109 6.25H25.4922L18.2734 14.5469L26.8047 25.75H20.1484L14.8984 18.9531L8.94531 25.75H5.61719L13.3516 16.9375L5.19531 6.25H12.0391L16.7266 12.4844L22.2109 6.25ZM21.0391 23.7812H22.8672L11.0547 8.125H9.08594L21.0391 23.7812Z" fill="#131212"/>
</svg>

<svg xmlns="http://www.w3.org/2000/svg" viewBox="0 0 32 32">
  <path fill="currentColor" d="M22.21 6.25h3.282l-7.219 8.297 8.532 11.203h-6.657l-5.25-6.797-5.953 6.797H5.617l7.735-8.813L5.195 6.25h6.844l4.688 6.234L22.21 6.25Zm-1.17 17.531h1.827L11.055 8.125h-1.97L21.04 23.781Z"/>
</svg>
